svg/set/PXBOX/U.svg

<?xml version="1.0" encoding="UTF-8" standalone="no"?>
<svg
   version="1.1"
   id="Layer_1"
   x="0px"
   y="0px"
   width="69.216576"
   height="50"
   viewBox="0 0 69.216573 50"
   xmlns="http://www.w3.org/2000/svg"
   xmlns:svg="http://www.w3.org/2000/svg">
  <defs
     id="defs9" />
  <g
     id="g6"
     transform="translate(1.4751516e-4)">
    <path
       fill="#ffffff"
       d="m 60.919,50 c -4.568,0 -11.836,-5.051 -16.226,-9.931 0,0 -2.689,-2.512 -10.02,-2.512 -7.416,0 -10.208,2.579 -10.237,2.604 C 20.215,44.861 12.805,50 8.301,50 7.819,50 7.355,49.945 6.917,49.838 -1.171,47.745 -0.165,37.064 0.317,31.931 1.086,23.777 2.729,12.113 8.143,5.011 10.748,1.593 14.228,0 19.089,0 22.098,0 25.85,0.424 28.578,3.61 H 40.641 C 43.367,0.424 47.119,0 50.131,0 c 4.861,0 8.341,1.593 10.942,5.011 5.418,7.102 7.061,18.766 7.823,26.92 0.485,5.133 1.497,15.814 -6.583,17.904 C 61.863,49.945 61.399,50 60.919,50 M 24.349,21.973 c -2.271,0 -4.115,1.85 -4.115,4.117 0,2.271 1.845,4.116 4.115,4.116 2.269,0 4.116,-1.846 4.116,-4.116 0,-2.268 -1.848,-4.117 -4.116,-4.117 m 19.428,0.909 c -1.685,0 -3.055,1.37 -3.055,3.055 0,1.688 1.37,3.056 3.055,3.056 1.685,0 3.052,-1.367 3.052,-3.056 0,-1.685 -1.367,-3.055 -3.052,-3.055 M 14.785,11.499 c -1.52,0 -2.749,1.233 -2.749,2.75 0,1.517 1.229,2.752 2.749,2.752 1.518,0 2.752,-1.235 2.752,-2.752 0,-1.517 -1.234,-2.75 -2.752,-2.75"
       id="path1" />
    <path
       d="m 60.919,48.752 c -4.162,0 -11.183,-4.938 -15.298,-9.516 -0.019,-0.019 -2.864,-2.924 -10.95,-2.924 -8.104,0 -11.075,2.924 -11.104,2.954 C 19.461,43.835 12.332,48.751 8.3,48.751 7.912,48.751 7.544,48.708 7.215,48.626 0.17,46.804 1.11,36.834 1.56,32.046 2.313,24.041 3.917,12.608 9.136,5.764 c 2.381,-3.125 5.45,-4.517 9.95,-4.517 3.068,0 6.499,0.439 8.895,3.61 h 13.254 c 2.397,-3.171 5.829,-3.61 8.896,-3.61 4.502,0 7.571,1.392 9.953,4.517 5.219,6.849 6.819,18.28 7.572,26.282 0.453,4.788 1.393,14.755 -5.654,16.58 -0.329,0.083 -0.695,0.126 -1.083,0.126 M 24.349,20.725 c -2.959,0 -5.364,2.408 -5.364,5.365 0,2.957 2.405,5.364 5.364,5.364 2.958,0 5.366,-2.407 5.366,-5.364 0,-2.957 -2.408,-5.365 -5.366,-5.365 m 19.428,0.909 c -2.373,0 -4.3,1.932 -4.3,4.303 0,2.372 1.927,4.304 4.3,4.304 2.368,0 4.3,-1.932 4.3,-4.304 0,-2.372 -1.931,-4.303 -4.3,-4.303 m 10.322,-3.263 c -0.656,0 -1.188,0.534 -1.188,1.19 0,0.653 0.532,1.19 1.188,1.19 0.657,0 1.193,-0.537 1.193,-1.19 0,-0.656 -0.536,-1.19 -1.193,-1.19 m -39.314,-8.12 c -2.203,0 -3.996,1.794 -3.996,3.998 0,2.203 1.793,3.997 3.996,3.997 2.204,0 3.998,-1.794 3.998,-3.997 0,-2.204 -1.794,-3.998 -3.998,-3.998 m 44.474,2.96 c -0.656,0 -1.188,0.537 -1.188,1.19 0,0.656 0.532,1.19 1.188,1.19 0.659,0 1.19,-0.534 1.19,-1.19 0,-0.653 -0.531,-1.19 -1.19,-1.19 M 48.935,13.059 c -0.653,0 -1.187,0.534 -1.187,1.19 0,0.655 0.533,1.189 1.187,1.189 0.659,0 1.193,-0.534 1.193,-1.189 0,-0.656 -0.534,-1.19 -1.193,-1.19 m 5.164,-5.008 c -0.656,0 -1.188,0.534 -1.188,1.193 0,0.652 0.532,1.187 1.188,1.187 0.657,0 1.193,-0.534 1.193,-1.187 0,-0.659 -0.536,-1.193 -1.193,-1.193"
       id="path2" />
    <path
       style="fill:url(#SVGID_6_)"
       id="SVGID_199_"
       d="m 37.327,25.937 c 0,-3.555 2.895,-6.451 6.448,-6.451 3.558,0 6.452,2.896 6.452,6.451 0,3.559 -2.895,6.452 -6.452,6.452 -3.553,0 -6.448,-2.894 -6.448,-6.452 M 16.836,26.09 c 0,-4.145 3.369,-7.514 7.514,-7.514 4.143,0 7.512,3.369 7.512,7.514 0,4.141 -3.369,7.513 -7.512,7.513 -4.145,0 -7.514,-3.373 -7.514,-7.513 m 33.922,-6.526 c 0,-1.843 1.499,-3.342 3.341,-3.342 1.843,0 3.342,1.499 3.342,3.342 0,1.841 -1.499,3.336 -3.342,3.336 -1.842,0 -3.341,-1.495 -3.341,-3.336 m -5.16,-5.315 c 0,-1.841 1.5,-3.336 3.339,-3.336 1.845,0 3.34,1.495 3.34,3.336 0,1.84 -1.495,3.341 -3.34,3.341 -1.839,0 -3.339,-1.501 -3.339,-3.341 m -36.96,0 c 0,-3.388 2.761,-6.146 6.147,-6.146 3.391,0 6.148,2.759 6.148,6.146 0,3.39 -2.758,6.146 -6.148,6.146 -3.387,0 -6.147,-2.756 -6.147,-6.146 M 50.758,9.24 c 0,-1.84 1.499,-3.338 3.341,-3.338 1.843,0 3.342,1.498 3.342,3.338 0,1.841 -1.499,3.339 -3.342,3.339 -1.842,0 -3.341,-1.498 -3.341,-3.339 M 42.722,6.47 42.362,7.007 H 41.716 27.501 26.858 L 26.495,6.47 C 24.997,4.26 22.919,3.397 19.086,3.397 c -3.867,0 -6.257,1.065 -8.241,3.672 -4.883,6.405 -6.417,17.44 -7.144,25.18 -0.635,6.72 -0.579,13.102 4.053,14.294 0.156,0.04 0.341,0.064 0.547,0.064 3.027,-0.003 9.552,-4.193 13.69,-8.802 l 0.012,-0.012 0.013,-0.012 c 0.142,-0.146 3.535,-3.62 12.655,-3.62 9.131,0 12.405,3.482 12.546,3.638 4.145,4.608 10.675,8.808 13.701,8.808 0.205,0 0.391,-0.024 0.547,-0.064 4.63,-1.192 4.682,-7.574 4.052,-14.294 -0.469,-4.965 -1.265,-11.282 -3.063,-16.864 -0.421,1.364 -1.693,2.356 -3.195,2.356 -1.843,0 -3.339,-1.496 -3.339,-3.339 0,-1.841 1.496,-3.339 3.339,-3.339 0.632,0 1.221,0.177 1.725,0.479 C 60.24,9.9 59.378,8.387 58.374,7.068 56.387,4.462 54.001,3.396 50.131,3.396 c -3.83,0 -5.908,0.864 -7.409,3.074" />
    <linearGradient
       id="SVGID_6_"
       gradientUnits="userSpaceOnUse"
       x1="-242.1548"
       y1="54.2285"
       x2="-240.5923"
       y2="54.2285"
       gradientTransform="matrix(39.9277,0,0,-39.9277,9672.125,2190.2219)">
      <stop
         style="stop-color:#536e78"
         offset="0"
         id="stop2" />
      <stop
         style="stop-color:#99aebc"
         offset="0.3"
         id="stop3" />
      <stop
         style="stop-color:#d9eaf3"
         offset="0.5"
         id="stop4" />
      <stop
         style="stop-color:#99aebc"
         offset="0.7"
         id="stop5" />
      <stop
         style="stop-color:#536e78"
         offset="1"
         id="stop6" />
    </linearGradient>
  </g>
  <path
     style="stroke-width:0.216303"
     d="m 53.794399,7.0994793 c -2.36234,0.00735 -2.397522,3.7928427 -0.288122,4.2918427 3.191169,0.738723 4.025583,-4.3222612 0.288122,-4.2918427 z"
     id="path6" />
  <path
     style="stroke-width:0.216303"
     d="m 59.128046,12.21471 c -1.726699,0.04154 -2.842505,2.3848 -1.494688,3.638709 1.402843,2.072553 4.859774,-0.341447 3.609558,-2.385671 -0.439492,-0.716871 -1.251426,-1.276072 -2.11487,-1.253038 z"
     id="path7" />
  <path
     style="stroke-width:0.216303"
     d="m 54.040698,17.256855 c -2.221997,0.07387 -2.868787,3.577101 -0.721574,4.345073 1.936561,1.096502 4.084384,-2.067621 2.37004,-3.521262 -0.408909,-0.472677 -0.99269,-0.888584 -1.648466,-0.823811 z"
     id="path8" />
  <path
     style="stroke-width:0.216303"
     d="m 48.891247,12.060932 c -2.19272,-0.07455 -2.9559,3.332307 -0.899855,4.159611 1.768727,0.914444 4.025056,-1.299084 2.828417,-3.024442 -0.401272,-0.66066 -1.139733,-1.152334 -1.928562,-1.135169 z"
     id="path9" />
</svg>

<?xml version="1.0" encoding="UTF-8" standalone="no"?>
<svg xmlns="http://www.w3.org/2000/svg" xmlns:xlink="http://www.w3.org/1999/xlink" version="1.1" id="Layer_1" x="0px" y="0px" width="69.217px" height="50px" viewBox="0 0 69.217 50">
  <g id="g6">
    <path fill="#FFFFFF" d="M60.919,50c-4.568,0-11.836-5.051-16.226-9.931c0,0-2.689-2.512-10.02-2.512   c-7.416,0-10.208,2.579-10.237,2.604C20.215,44.861,12.805,50,8.301,50c-0.482,0-0.946-0.055-1.384-0.162   c-8.088-2.093-7.082-12.774-6.6-17.907c0.769-8.154,2.412-19.818,7.826-26.92C10.748,1.593,14.228,0,19.089,0   c3.009,0,6.761,0.424,9.489,3.61h12.063C43.367,0.424,47.119,0,50.131,0c4.861,0,8.341,1.593,10.942,5.011   c5.418,7.102,7.061,18.766,7.823,26.92c0.485,5.133,1.497,15.814-6.583,17.904C61.863,49.945,61.399,50,60.919,50 M24.349,21.973   c-2.271,0-4.115,1.85-4.115,4.117c0,2.271,1.845,4.116,4.115,4.116c2.269,0,4.116-1.846,4.116-4.116   C28.465,23.822,26.617,21.973,24.349,21.973 M43.777,22.882c-1.685,0-3.055,1.37-3.055,3.055c0,1.688,1.37,3.056,3.055,3.056   s3.052-1.367,3.052-3.056C46.829,24.252,45.462,22.882,43.777,22.882 M14.785,11.499c-1.52,0-2.749,1.233-2.749,2.75   s1.229,2.752,2.749,2.752c1.518,0,2.752-1.235,2.752-2.752S16.303,11.499,14.785,11.499"/>
    <path d="M60.919,48.752c-4.162,0-11.183-4.938-15.298-9.516c-0.019-0.019-2.864-2.924-10.95-2.924   c-8.104,0-11.075,2.924-11.104,2.954c-4.106,4.569-11.235,9.485-15.267,9.485c-0.388,0-0.756-0.043-1.085-0.125   c-7.045-1.822-6.105-11.792-5.655-16.58c0.753-8.005,2.357-19.438,7.576-26.282c2.381-3.125,5.45-4.517,9.95-4.517   c3.068,0,6.499,0.439,8.895,3.61h13.254c2.397-3.171,5.829-3.61,8.896-3.61c4.502,0,7.571,1.392,9.953,4.517   c5.219,6.849,6.819,18.28,7.572,26.282c0.453,4.788,1.393,14.755-5.654,16.58C61.673,48.709,61.307,48.752,60.919,48.752    M24.349,20.725c-2.959,0-5.364,2.408-5.364,5.365s2.405,5.364,5.364,5.364c2.958,0,5.366-2.407,5.366-5.364   S27.307,20.725,24.349,20.725 M43.777,21.634c-2.373,0-4.3,1.932-4.3,4.303c0,2.372,1.927,4.304,4.3,4.304   c2.368,0,4.3-1.932,4.3-4.304C48.077,23.565,46.146,21.634,43.777,21.634 M54.099,18.371c-0.656,0-1.188,0.534-1.188,1.19   c0,0.653,0.532,1.19,1.188,1.19c0.657,0,1.193-0.537,1.193-1.19C55.292,18.905,54.756,18.371,54.099,18.371 M14.785,10.251   c-2.203,0-3.996,1.794-3.996,3.998c0,2.203,1.793,3.997,3.996,3.997c2.204,0,3.998-1.794,3.998-3.997   C18.783,12.045,16.989,10.251,14.785,10.251 M59.259,13.211c-0.656,0-1.188,0.537-1.188,1.19c0,0.656,0.532,1.19,1.188,1.19   c0.659,0,1.19-0.534,1.19-1.19C60.449,13.748,59.918,13.211,59.259,13.211 M48.935,13.059c-0.653,0-1.187,0.534-1.187,1.19   c0,0.655,0.533,1.189,1.187,1.189c0.659,0,1.193-0.534,1.193-1.189C50.128,13.593,49.594,13.059,48.935,13.059 M54.099,8.051   c-0.656,0-1.188,0.534-1.188,1.193c0,0.652,0.532,1.187,1.188,1.187c0.657,0,1.193-0.534,1.193-1.187   C55.292,8.585,54.756,8.051,54.099,8.051"/>
    <path style="fill:url(#SVGID_6_);" id="SVGID_199_" d="M37.327,25.937c0-3.555,2.895-6.451,6.448-6.451c3.558,0,6.452,2.896,6.452,6.451    c0,3.559-2.895,6.452-6.452,6.452C40.222,32.389,37.327,29.495,37.327,25.937 M16.836,26.09c0-4.145,3.369-7.514,7.514-7.514    c4.143,0,7.512,3.369,7.512,7.514c0,4.141-3.369,7.513-7.512,7.513C20.205,33.603,16.836,30.23,16.836,26.09 M50.758,19.564    c0-1.843,1.499-3.342,3.341-3.342c1.843,0,3.342,1.499,3.342,3.342c0,1.841-1.499,3.336-3.342,3.336    C52.257,22.9,50.758,21.405,50.758,19.564 M45.598,14.249c0-1.841,1.5-3.336,3.339-3.336c1.845,0,3.34,1.495,3.34,3.336    c0,1.84-1.495,3.341-3.34,3.341C47.098,17.59,45.598,16.089,45.598,14.249 M8.638,14.249c0-3.388,2.761-6.146,6.147-6.146    c3.391,0,6.148,2.759,6.148,6.146c0,3.39-2.758,6.146-6.148,6.146C11.398,20.395,8.638,17.639,8.638,14.249 M50.758,9.24    c0-1.84,1.499-3.338,3.341-3.338c1.843,0,3.342,1.498,3.342,3.338c0,1.841-1.499,3.339-3.342,3.339    C52.257,12.579,50.758,11.081,50.758,9.24 M42.722,6.47l-0.36,0.537h-0.646H27.501h-0.643L26.495,6.47    c-1.498-2.21-3.576-3.073-7.409-3.073c-3.867,0-6.257,1.065-8.241,3.672c-4.883,6.405-6.417,17.44-7.144,25.18    c-0.635,6.72-0.579,13.102,4.053,14.294c0.156,0.04,0.341,0.064,0.547,0.064c3.027-0.003,9.552-4.193,13.69-8.802l0.012-0.012    l0.013-0.012c0.142-0.146,3.535-3.62,12.655-3.62c9.131,0,12.405,3.482,12.546,3.638c4.145,4.608,10.675,8.808,13.701,8.808    c0.205,0,0.391-0.024,0.547-0.064c4.63-1.192,4.682-7.574,4.052-14.294c-0.469-4.965-1.265-11.282-3.063-16.864    c-0.421,1.364-1.693,2.356-3.195,2.356c-1.843,0-3.339-1.496-3.339-3.339c0-1.841,1.496-3.339,3.339-3.339    c0.632,0,1.221,0.177,1.725,0.479C60.24,9.9,59.378,8.387,58.374,7.068c-1.987-2.606-4.373-3.672-8.243-3.672    C46.301,3.396,44.223,4.26,42.722,6.47"/>
    <linearGradient id="SVGID_6_" gradientUnits="userSpaceOnUse" x1="-242.1548" y1="54.2285" x2="-240.5923" y2="54.2285" gradientTransform="matrix(39.9277 0 0 -39.9277 9672.125 2190.2219)">
      <stop style="stop-color:#536e78" offset="0"/>
      <stop style="stop-color:#99aebc" offset="0.3"/>
      <stop style="stop-color:#d9eaf3" offset="0.5"/>
      <stop style="stop-color:#99aebc" offset="0.7"/>
      <stop style="stop-color:#536e78" offset="1"/>
    </linearGradient>
  </g>
  <path style="stroke-width:0.21630314" d="m 53.794251,7.0994793 c -2.36234,0.00735 -2.397522,3.7928427 -0.288122,4.2918427 3.191169,0.738723 4.025583,-4.3222612 0.288122,-4.2918427 z"/>
  <path style="stroke-width:0.21630314" d="m 59.127898,12.21471 c -1.726699,0.04154 -2.842505,2.3848 -1.494688,3.638709 1.402843,2.072553 4.859774,-0.341447 3.609558,-2.385671 -0.439492,-0.716871 -1.251426,-1.276072 -2.11487,-1.253038 z"/>
  <path style="stroke-width:0.21630314" d="m 54.04055,17.256855 c -2.221997,0.07387 -2.868787,3.577101 -0.721574,4.345073 1.936561,1.096502 4.084384,-2.067621 2.37004,-3.521262 -0.408909,-0.472677 -0.99269,-0.888584 -1.648466,-0.823811 z"/>
  <path style="stroke-width:0.21630314" d="m 48.891099,12.060932 c -2.19272,-0.07455 -2.9559,3.332307 -0.899855,4.159611 1.768727,0.914444 4.025056,-1.299084 2.828417,-3.024442 -0.401272,-0.66066 -1.139733,-1.152334 -1.928562,-1.135169 z"/>
</svg>
